X:20012
T:Toss the Feathers
R:Reel
C:Trad.
O:Ireland
Z:Paul Hardy's Session Tunebook 2022 (see www.paulhardy.net). Creative Commons cc by-nc-sa licenced.
M:4/4
L:1/8
Q:1/4=130
K:Edor
"Em"EBB2 "Bm"dBB2|"Em"EBB2 "D"F3A|"Em"BEE2 BABc|"D"d2fe dBAF:|
"Em"(3Bcd ed e3e|"D"fede "Em"fee2|(3gfe be (3gfe be|"D"fede "Em"fee2|
"Em"(3Bcd ed e3e|"D"fede faa2|"Bm"b3f "D"a3f|"Em"egfe "D"dBAF||"_Out"E4|]

